assets/email_Roman.svg

<?xml version="1.0" encoding="UTF-8" standalone="no"?>
<svg
   viewBox="0 0 28800 2304"
   version="1.1"
   id="svg40"
   width="28800"
   height="2304"
   xmlns="http://www.w3.org/2000/svg"
   xmlns:svg="http://www.w3.org/2000/svg">
  <defs
     id="defs44" />
  <g
     transform="translate(-27,2048)"
     id="g38">
    <path
       transform="translate(-320)"
       d="m 1390,-1413 -64,218 q -162,-68 -295,-68 -214,0 -330,123 -116,122 -116,355 V 0 H 347 v -1472 h 194 l 29,291 h 10 q 100,-157 214,-224 114,-67 281,-67 155,0 315,59 z"
       id="path2" />
    <path
       transform="translate(1312)"
       d="M 801,0 Q 517,0 334,-201 151,-402 151,-739 q 0,-340 178,-536 178,-197 480,-197 286,0 468,201 183,200 183,532 0,343 -180,541 Q 1100,0 801,0 m 5,-198 q 407,0 407,-541 0,-535 -409,-535 -406,0 -406,535 0,541 408,541 z"
       id="path4" />
    <path
       transform="translate(2944)"
       d="m 1282,0 v -931 q 0,-193 -35,-268 -34,-75 -116,-75 -114,0 -166,110 -51,109 -51,366 V 0 H 702 v -931 q 0,-343 -164,-343 -110,0 -158,105 -47,104 -47,419 V 0 H 121 v -1472 h 167 l 35,221 h 13 q 88,-221 264,-221 213,0 279,240 h 8 q 100,-240 288,-240 168,0 244,122 76,122 76,406 V 0 Z"
       id="path6" />
    <path
       transform="translate(4576)"
       d="m 1175,0 -49,-221 h -10 Q 1014,-96 908,-48 802,0 634,0 420,0 298,-113 177,-226 177,-430 q 0,-436 670,-457 l 266,-9 v -86 q 0,-292 -320,-292 -193,0 -430,107 l -83,-179 q 257,-126 503,-126 298,0 431,115 133,114 133,367 V 0 h -172 m -65,-732 -213,9 q -257,11 -365,82 -107,71 -107,217 0,236 262,236 193,0 308,-108 115,-108 115,-305 z"
       id="path8" />
    <path
       transform="translate(6208)"
       d="m 1164,0 v -931 q 0,-343 -312,-343 -403,0 -403,524 V 0 H 210 v -1472 h 193 l 35,220 h 13 q 135,-220 441,-220 511,0 511,528 V 0 Z"
       id="path10" />
    <path
       transform="translate(7840)"
       d="m 1049,-492 h -5 q -97,236 -302,236 -158,0 -250,-142 -92,-143 -92,-383 0,-282 127,-454 128,-173 335,-173 180,0 336,64 l -28,571 q -3,52 -3,95 v 10 q 0,241 95,241 131,0 131,-518 0,-376 -146,-590 -145,-214 -392,-214 -297,0 -463,257 -166,256 -166,704 0,417 170,645 170,228 484,228 237,0 454,-111 V 148 Q 1127,256 872,256 481,256 261,-18 41,-292 41,-782 q 0,-525 219,-831 219,-307 597,-307 325,0 520,263 195,263 195,717 0,310 -84,497 -84,187 -233,187 -168,0 -206,-236 m -62,-716 q -71,-29 -135,-29 -117,0 -180,129 -62,129 -62,333 0,348 167,348 172,0 190,-431 z"
       id="path12" />
    <path
       transform="translate(9472)"
       d="m 1210,0 -35,-219 h -13 Q 1024,0 723,0 210,0 210,-528 v -944 h 239 v 931 q 0,343 310,343 211,0 308,-122 97,-122 97,-401 v -751 h 239 V 0 Z"
       id="path14" />
    <path
       transform="translate(11104)"
       d="M 1339,-223 V -42 Q 1168,0 1008,0 533,0 533,-450 v -834 H 182 v -132 l 351,-64 101,-377 h 138 v 385 h 575 v 188 H 772 v 831 q 0,255 252,255 122,0 315,-25 z"
       id="path16" />
    <path
       transform="translate(12736)"
       d="m 1177,-219 h -10 Q 1018,0 744,0 480,0 330,-193 180,-387 180,-733 q 0,-350 151,-544 151,-195 413,-195 271,0 423,210 h 16 q -16,-170 -16,-213 v -573 h 239 V 0 h -193 l -36,-219 m -10,-462 v -52 q 0,-293 -91,-417 -91,-124 -291,-124 -357,0 -357,543 0,533 360,533 199,0 286,-114 88,-114 93,-369 z"
       id="path18" />
    <path
       transform="translate(14368)"
       d="m 1175,0 -49,-221 h -10 Q 1014,-96 908,-48 802,0 634,0 420,0 298,-113 177,-226 177,-430 q 0,-436 670,-457 l 266,-9 v -86 q 0,-292 -320,-292 -193,0 -430,107 l -83,-179 q 257,-126 503,-126 298,0 431,115 133,114 133,367 V 0 h -172 m -65,-732 -213,9 q -257,11 -365,82 -107,71 -107,217 0,236 262,236 193,0 308,-108 115,-108 115,-305 z"
       id="path20" />
    <path
       transform="translate(16000)"
       d="m 698,-1860 -351,-28 v -160 h 591 v 1860 l 462,26 V 0 H 247 v -162 l 451,-26 z"
       id="path22" />
    <path
       transform="translate(17632)"
       d="m 698,-1860 -351,-28 v -160 h 591 v 1860 l 462,26 V 0 H 247 v -162 l 451,-26 z"
       id="path24" />
    <path
       transform="translate(19264)"
       d="m 1175,0 -49,-221 h -10 Q 1014,-96 908,-48 802,0 634,0 420,0 298,-113 177,-226 177,-430 q 0,-436 670,-457 l 266,-9 v -86 q 0,-292 -320,-292 -193,0 -430,107 l -83,-179 q 257,-126 503,-126 298,0 431,115 133,114 133,367 V 0 h -172 m -65,-732 -213,9 q -257,11 -365,82 -107,71 -107,217 0,236 262,236 193,0 308,-108 115,-108 115,-305 z"
       id="path26" />
    <path
       transform="translate(20896)"
       d="m 266,-90 v -218 q 253,110 486,110 361,0 361,-204 0,-74 -65,-128 -64,-54 -296,-137 -306,-113 -386,-206 -79,-94 -79,-222 0,-176 146,-276 147,-101 405,-101 260,0 485,97 l -79,195 q -239,-94 -418,-94 -310,0 -310,169 0,79 66,126 67,47 306,131 277,100 368,197 91,96 91,236 0,194 -154,305 Q 1040,0 759,0 433,0 266,-90 Z"
       id="path28" />
    <path
       transform="translate(22528)"
       d="m 806,-384 q 199,0 199,224 0,224 -199,224 -198,0 -198,-224 0,-224 198,-224 z"
       id="path30" />
    <path
       transform="translate(24160)"
       d="M 1439,-698 H 423 q 10,489 451,489 256,0 486,-99 V -98 Q 1142,0 882,0 561,0 368,-193 175,-387 175,-726 q 0,-344 178,-545 178,-201 476,-201 278,0 444,172 166,171 166,457 v 145 M 428,-896 h 752 q 0,-378 -357,-378 -361,0 -395,378 z"
       id="path32" />
    <path
       transform="translate(25792)"
       d="m 1177,-219 h -10 Q 1018,0 744,0 480,0 330,-193 180,-387 180,-733 q 0,-350 151,-544 151,-195 413,-195 271,0 423,210 h 16 q -16,-170 -16,-213 v -573 h 239 V 0 h -193 l -36,-219 m -10,-462 v -52 q 0,-293 -91,-417 -91,-124 -291,-124 -357,0 -357,543 0,533 360,533 199,0 286,-114 88,-114 93,-369 z"
       id="path34" />
    <path
       transform="translate(27424)"
       d="m 1210,0 -35,-219 h -13 Q 1024,0 723,0 210,0 210,-528 v -944 h 239 v 931 q 0,343 310,343 211,0 308,-122 97,-122 97,-401 v -751 h 239 V 0 Z"
       id="path36" />
  </g>
</svg>

<svg xmlns="http://www.w3.org/2000/svg" xmlns:xlink="http://www.w3.org/1999/xlink" viewBox="0 0 28832 3264">
<g transform="matrix(1,0,0,1,0,2496)">
  <path transform="matrix(1,0,0,1,-320,0)" d="M 1390 -1413 L 1326 -1195 Q 1164 -1263 1031 -1263 Q 817 -1263 701 -1140 Q 585 -1018 585 -785 L 585 0 L 347 0 L 347 -1472 L 541 -1472 L 570 -1181 L 580 -1181 Q 680 -1338 794 -1405 Q 908 -1472 1075 -1472 Q 1230 -1472 1390 -1413 Z"/>
  <path transform="matrix(1,0,0,1,1312,0)" d="M 801 0 Q 517 0 334 -201 Q 151 -402 151 -739 Q 151 -1079 329 -1275 Q 507 -1472 809 -1472 Q 1095 -1472 1277 -1271 Q 1460 -1071 1460 -739 Q 1460 -396 1280 -198 Q 1100 0 801 0 M 806 -198 Q 1213 -198 1213 -739 Q 1213 -1274 804 -1274 Q 398 -1274 398 -739 Q 398 -198 806 -198 Z"/>
  <path transform="matrix(1,0,0,1,2944,0)" d="M 1282 0 L 1282 -931 Q 1282 -1124 1247 -1199 Q 1213 -1274 1131 -1274 Q 1017 -1274 965 -1164 Q 914 -1055 914 -798 L 914 0 L 702 0 L 702 -931 Q 702 -1274 538 -1274 Q 428 -1274 380 -1169 Q 333 -1065 333 -750 L 333 0 L 121 0 L 121 -1472 L 288 -1472 L 323 -1251 L 336 -1251 Q 424 -1472 600 -1472 Q 813 -1472 879 -1232 L 887 -1232 Q 987 -1472 1175 -1472 Q 1343 -1472 1419 -1350 Q 1495 -1228 1495 -944 L 1495 0 L 1282 0 Z"/>
  <path transform="matrix(1,0,0,1,4576,0)" d="M 1175 0 L 1126 -221 L 1116 -221 Q 1014 -96 908 -48 Q 802 0 634 0 Q 420 0 298 -113 Q 177 -226 177 -430 Q 177 -866 847 -887 L 1113 -896 L 1113 -982 Q 1113 -1274 793 -1274 Q 600 -1274 363 -1167 L 280 -1346 Q 537 -1472 783 -1472 Q 1081 -1472 1214 -1357 Q 1347 -1243 1347 -990 L 1347 0 L 1175 0 M 1110 -732 L 897 -723 Q 640 -712 532 -641 Q 425 -570 425 -424 Q 425 -188 687 -188 Q 880 -188 995 -296 Q 1110 -404 1110 -601 L 1110 -732 Z"/>
  <path transform="matrix(1,0,0,1,6208,0)" d="M 1164 0 L 1164 -931 Q 1164 -1274 852 -1274 Q 449 -1274 449 -750 L 449 0 L 210 0 L 210 -1472 L 403 -1472 L 438 -1252 L 451 -1252 Q 586 -1472 892 -1472 Q 1403 -1472 1403 -944 L 1403 0 L 1164 0 Z"/>
  <path transform="matrix(1,0,0,1,7840,0)" d="M 1049 -492 L 1044 -492 Q 947 -256 742 -256 Q 584 -256 492 -398 Q 400 -541 400 -781 Q 400 -1063 527 -1235 Q 655 -1408 862 -1408 Q 1042 -1408 1198 -1344 L 1170 -773 Q 1167 -721 1167 -678 L 1167 -668 Q 1167 -427 1262 -427 Q 1393 -427 1393 -945 Q 1393 -1321 1247 -1535 Q 1102 -1749 855 -1749 Q 558 -1749 392 -1492 Q 226 -1236 226 -788 Q 226 -371 396 -143 Q 566 85 880 85 Q 1117 85 1334 -26 L 1334 148 Q 1127 256 872 256 Q 481 256 261 -18 Q 41 -292 41 -782 Q 41 -1307 260 -1613 Q 479 -1920 857 -1920 Q 1182 -1920 1377 -1657 Q 1572 -1394 1572 -940 Q 1572 -630 1488 -443 Q 1404 -256 1255 -256 Q 1087 -256 1049 -492 M 987 -1208 Q 916 -1237 852 -1237 Q 735 -1237 672 -1108 Q 610 -979 610 -775 Q 610 -427 777 -427 Q 949 -427 967 -858 L 987 -1208 Z"/>
  <path transform="matrix(1,0,0,1,9472,0)" d="M 1210 0 L 1175 -219 L 1162 -219 Q 1024 0 723 0 Q 210 0 210 -528 L 210 -1472 L 449 -1472 L 449 -541 Q 449 -198 759 -198 Q 970 -198 1067 -320 Q 1164 -442 1164 -721 L 1164 -1472 L 1403 -1472 L 1403 0 L 1210 0 Z"/>
  <path transform="matrix(1,0,0,1,11104,0)" d="M 1339 -223 L 1339 -42 Q 1168 0 1008 0 Q 533 0 533 -450 L 533 -1284 L 182 -1284 L 182 -1416 L 533 -1480 L 634 -1857 L 772 -1857 L 772 -1472 L 1347 -1472 L 1347 -1284 L 772 -1284 L 772 -453 Q 772 -198 1024 -198 Q 1146 -198 1339 -223 Z"/>
  <path transform="matrix(1,0,0,1,12736,0)" d="M 1177 -219 L 1167 -219 Q 1018 0 744 0 Q 480 0 330 -193 Q 180 -387 180 -733 Q 180 -1083 331 -1277 Q 482 -1472 744 -1472 Q 1015 -1472 1167 -1262 L 1183 -1262 Q 1167 -1432 1167 -1475 L 1167 -2048 L 1406 -2048 L 1406 0 L 1213 0 L 1177 -219 M 1167 -681 L 1167 -733 Q 1167 -1026 1076 -1150 Q 985 -1274 785 -1274 Q 428 -1274 428 -731 Q 428 -198 788 -198 Q 987 -198 1074 -312 Q 1162 -426 1167 -681 Z"/>
  <path transform="matrix(1,0,0,1,14368,0)" d="M 1175 0 L 1126 -221 L 1116 -221 Q 1014 -96 908 -48 Q 802 0 634 0 Q 420 0 298 -113 Q 177 -226 177 -430 Q 177 -866 847 -887 L 1113 -896 L 1113 -982 Q 1113 -1274 793 -1274 Q 600 -1274 363 -1167 L 280 -1346 Q 537 -1472 783 -1472 Q 1081 -1472 1214 -1357 Q 1347 -1243 1347 -990 L 1347 0 L 1175 0 M 1110 -732 L 897 -723 Q 640 -712 532 -641 Q 425 -570 425 -424 Q 425 -188 687 -188 Q 880 -188 995 -296 Q 1110 -404 1110 -601 L 1110 -732 Z"/>
  <path transform="matrix(1,0,0,1,16000,0)" d="M 698 -1860 L 347 -1888 L 347 -2048 L 938 -2048 L 938 -188 L 1400 -162 L 1400 0 L 247 0 L 247 -162 L 698 -188 L 698 -1860 Z"/>
  <path transform="matrix(1,0,0,1,17632,0)" d="M 698 -1860 L 347 -1888 L 347 -2048 L 938 -2048 L 938 -188 L 1400 -162 L 1400 0 L 247 0 L 247 -162 L 698 -188 L 698 -1860 Z"/>
  <path transform="matrix(1,0,0,1,19264,0)" d="M 1175 0 L 1126 -221 L 1116 -221 Q 1014 -96 908 -48 Q 802 0 634 0 Q 420 0 298 -113 Q 177 -226 177 -430 Q 177 -866 847 -887 L 1113 -896 L 1113 -982 Q 1113 -1274 793 -1274 Q 600 -1274 363 -1167 L 280 -1346 Q 537 -1472 783 -1472 Q 1081 -1472 1214 -1357 Q 1347 -1243 1347 -990 L 1347 0 L 1175 0 M 1110 -732 L 897 -723 Q 640 -712 532 -641 Q 425 -570 425 -424 Q 425 -188 687 -188 Q 880 -188 995 -296 Q 1110 -404 1110 -601 L 1110 -732 Z"/>
  <path transform="matrix(1,0,0,1,20896,0)" d="M 266 -90 L 266 -308 Q 519 -198 752 -198 Q 1113 -198 1113 -402 Q 1113 -476 1048 -530 Q 984 -584 752 -667 Q 446 -780 366 -873 Q 287 -967 287 -1095 Q 287 -1271 433 -1371 Q 580 -1472 838 -1472 Q 1098 -1472 1323 -1375 L 1244 -1180 Q 1005 -1274 826 -1274 Q 516 -1274 516 -1105 Q 516 -1026 582 -979 Q 649 -932 888 -848 Q 1165 -748 1256 -651 Q 1347 -555 1347 -415 Q 1347 -221 1193 -110 Q 1040 0 759 0 Q 433 0 266 -90 Z"/>
  <path transform="matrix(1,0,0,1,22528,0)" d="M 806 -384 Q 1005 -384 1005 -160 Q 1005 64 806 64 Q 608 64 608 -160 Q 608 -384 806 -384 Z"/>
  <path transform="matrix(1,0,0,1,24160,0)" d="M 1439 -698 L 423 -698 Q 433 -209 874 -209 Q 1130 -209 1360 -308 L 1360 -98 Q 1142 0 882 0 Q 561 0 368 -193 Q 175 -387 175 -726 Q 175 -1070 353 -1271 Q 531 -1472 829 -1472 Q 1107 -1472 1273 -1300 Q 1439 -1129 1439 -843 L 1439 -698 M 428 -896 L 1180 -896 Q 1180 -1274 823 -1274 Q 462 -1274 428 -896 Z"/>
  <path transform="matrix(1,0,0,1,25792,0)" d="M 1177 -219 L 1167 -219 Q 1018 0 744 0 Q 480 0 330 -193 Q 180 -387 180 -733 Q 180 -1083 331 -1277 Q 482 -1472 744 -1472 Q 1015 -1472 1167 -1262 L 1183 -1262 Q 1167 -1432 1167 -1475 L 1167 -2048 L 1406 -2048 L 1406 0 L 1213 0 L 1177 -219 M 1167 -681 L 1167 -733 Q 1167 -1026 1076 -1150 Q 985 -1274 785 -1274 Q 428 -1274 428 -731 Q 428 -198 788 -198 Q 987 -198 1074 -312 Q 1162 -426 1167 -681 Z"/>
  <path transform="matrix(1,0,0,1,27424,0)" d="M 1210 0 L 1175 -219 L 1162 -219 Q 1024 0 723 0 Q 210 0 210 -528 L 210 -1472 L 449 -1472 L 449 -541 Q 449 -198 759 -198 Q 970 -198 1067 -320 Q 1164 -442 1164 -721 L 1164 -1472 L 1403 -1472 L 1403 0 L 1210 0 Z"/>
</g>
</svg>
